<?xml version="1.0" encoding="UTF-8"?>
<map version="1.10" tiledversion="1.11.0" orientation="orthogonal" renderorder="right-down" width="40" height="30" tilewidth="8" tileheight="8" infinite="0" backgroundcolor="#323c39" nextlayerid="32" nextobjectid="24">
 <editorsettings>
  <export target="test.json" format="json"/>
 </editorsettings>
 <tileset firstgid="1" name="8x8" tilewidth="8" tileheight="8" tilecount="4096" columns="64">
  <image source="../atlas.bmp" trans="ff00ff" width="512" height="512"/>
  <wangsets>
   <wangset name="Unnamed Set" type="corner" tile="-1">
    <wangcolor name="floor" color="#ff0000" tile="-1" probability="1"/>
    <wangcolor name="column" color="#00ff00" tile="-1" probability="1"/>
    <wangtile tileid="274" wangid="0,1,0,1,0,1,0,1"/>
    <wangtile tileid="275" wangid="0,1,0,1,0,1,0,1"/>
    <wangtile tileid="276" wangid="0,1,0,1,0,1,0,1"/>
    <wangtile tileid="277" wangid="0,1,0,1,0,1,0,1"/>
    <wangtile tileid="278" wangid="0,1,0,1,0,1,0,1"/>
    <wangtile tileid="279" wangid="0,1,0,1,0,1,0,1"/>
    <wangtile tileid="280" wangid="0,1,0,1,0,1,0,1"/>
    <wangtile tileid="281" wangid="0,1,0,1,0,1,0,1"/>
    <wangtile tileid="282" wangid="0,1,0,1,0,1,0,1"/>
    <wangtile tileid="283" wangid="0,1,0,1,0,1,0,1"/>
    <wangtile tileid="284" wangid="0,1,0,1,0,1,0,1"/>
    <wangtile tileid="300" wangid="0,1,0,1,0,1,0,1"/>
    <wangtile tileid="301" wangid="0,1,0,1,0,1,0,1"/>
    <wangtile tileid="302" wangid="0,1,0,1,0,1,0,1"/>
    <wangtile tileid="338" wangid="0,1,0,1,0,1,0,1"/>
    <wangtile tileid="339" wangid="0,1,0,1,0,1,0,1"/>
    <wangtile tileid="340" wangid="0,1,0,1,0,1,0,1"/>
    <wangtile tileid="341" wangid="0,1,0,1,0,1,0,1"/>
    <wangtile tileid="345" wangid="0,1,0,1,0,1,0,1"/>
    <wangtile tileid="346" wangid="0,1,0,1,0,1,0,1"/>
    <wangtile tileid="347" wangid="0,1,0,1,0,1,0,1"/>
    <wangtile tileid="352" wangid="0,1,0,1,0,1,0,1"/>
    <wangtile tileid="353" wangid="0,1,0,1,0,1,0,1"/>
    <wangtile tileid="364" wangid="0,1,0,1,0,1,0,1"/>
    <wangtile tileid="365" wangid="0,1,0,1,0,1,0,1"/>
    <wangtile tileid="366" wangid="0,1,0,1,0,1,0,1"/>
    <wangtile tileid="402" wangid="0,1,0,1,0,1,0,1"/>
    <wangtile tileid="403" wangid="0,1,0,1,0,1,0,1"/>
    <wangtile tileid="404" wangid="0,1,0,1,0,1,0,1"/>
    <wangtile tileid="405" wangid="0,1,0,1,0,1,0,1"/>
    <wangtile tileid="406" wangid="0,1,0,1,0,1,0,1"/>
    <wangtile tileid="407" wangid="0,1,0,1,0,1,0,1"/>
    <wangtile tileid="409" wangid="0,1,0,1,0,1,0,1"/>
    <wangtile tileid="410" wangid="0,1,0,1,0,1,0,1"/>
    <wangtile tileid="411" wangid="0,1,0,1,0,1,0,1"/>
    <wangtile tileid="416" wangid="0,1,0,1,0,1,0,1"/>
    <wangtile tileid="417" wangid="0,1,0,1,0,1,0,1"/>
    <wangtile tileid="428" wangid="0,1,0,1,0,1,0,1"/>
    <wangtile tileid="429" wangid="0,1,0,1,0,1,0,1"/>
    <wangtile tileid="430" wangid="0,1,0,1,0,1,0,1"/>
    <wangtile tileid="431" wangid="0,1,0,1,0,1,0,1"/>
    <wangtile tileid="470" wangid="0,1,0,1,0,1,0,1"/>
    <wangtile tileid="471" wangid="0,1,0,1,0,1,0,1"/>
    <wangtile tileid="473" wangid="0,1,0,1,0,1,0,1"/>
    <wangtile tileid="474" wangid="0,1,0,1,0,1,0,1"/>
    <wangtile tileid="475" wangid="0,1,0,1,0,1,0,1"/>
    <wangtile tileid="492" wangid="0,1,0,1,0,1,0,1"/>
    <wangtile tileid="493" wangid="0,1,0,1,0,1,0,1"/>
    <wangtile tileid="494" wangid="0,1,0,1,0,1,0,1"/>
    <wangtile tileid="495" wangid="0,1,0,1,0,1,0,1"/>
    <wangtile tileid="530" wangid="0,1,0,1,0,1,0,1"/>
    <wangtile tileid="534" wangid="0,1,0,1,0,1,0,1"/>
    <wangtile tileid="535" wangid="0,1,0,1,0,1,0,1"/>
    <wangtile tileid="536" wangid="0,1,0,1,0,1,0,1"/>
    <wangtile tileid="537" wangid="0,1,0,1,0,1,0,1"/>
    <wangtile tileid="540" wangid="0,1,0,1,0,1,0,1"/>
    <wangtile tileid="556" wangid="0,1,0,1,0,1,0,1"/>
    <wangtile tileid="557" wangid="0,1,0,1,0,1,0,1"/>
    <wangtile tileid="558" wangid="0,1,0,1,0,1,0,1"/>
    <wangtile tileid="559" wangid="0,1,0,1,0,1,0,1"/>
    <wangtile tileid="598" wangid="0,1,0,1,0,1,0,1"/>
    <wangtile tileid="599" wangid="0,1,0,1,0,1,0,1"/>
    <wangtile tileid="620" wangid="0,1,0,1,0,1,0,1"/>
    <wangtile tileid="621" wangid="0,1,0,1,0,1,0,1"/>
    <wangtile tileid="622" wangid="0,1,0,1,0,1,0,1"/>
    <wangtile tileid="623" wangid="0,1,0,1,0,1,0,1"/>
    <wangtile tileid="661" wangid="0,1,0,1,0,1,0,1"/>
    <wangtile tileid="684" wangid="0,1,0,1,0,1,0,1"/>
   </wangset>
  </wangsets>
 </tileset>
 <tileset firstgid="4097" name="16x16" tilewidth="16" tileheight="16" tilecount="1024" columns="32">
  <image source="../atlas.bmp" trans="ff00ff" width="512" height="512"/>
 </tileset>
 <group id="24" name="the-first-gem" offsetx="-1120" offsety="384">
  <objectgroup id="28" name="obj.txt">
   <object id="14" name="player" type="player" gid="4449" x="216" y="176" width="16" height="16"/>
  </objectgroup>
  <layer id="25" name="bg.txt" width="40" height="30">
   <data encoding="csv">
531,531,531,531,531,531,531,531,531,531,531,531,531,531,531,531,531,531,531,531,531,531,531,531,531,531,531,531,531,531,531,531,531,531,531,531,531,531,531,531,
531,531,531,531,531,531,531,531,531,531,531,531,531,531,531,531,531,531,531,531,531,531,531,531,531,531,531,531,531,531,531,531,531,531,531,531,531,531,531,531,
531,531,531,531,531,531,531,531,531,531,531,531,531,531,531,531,531,531,531,531,531,531,531,531,531,531,531,531,531,531,531,531,531,531,531,531,531,531,531,531,
531,531,531,0,0,0,0,0,0,0,0,0,0,0,0,0,0,0,0,0,0,0,0,0,0,0,0,0,0,0,0,0,0,0,0,531,531,531,531,531,
531,531,531,0,0,0,0,0,0,0,0,0,0,0,0,0,0,0,0,0,0,0,0,0,0,0,0,0,0,0,0,0,0,0,0,531,531,531,531,531,
531,531,531,0,0,0,0,0,0,0,0,0,0,0,0,0,0,0,0,0,0,0,0,0,0,0,0,0,0,0,0,0,0,0,0,531,531,531,531,531,
531,531,531,0,0,0,0,0,0,0,0,0,0,0,0,0,0,0,0,0,0,0,0,0,0,0,0,0,0,0,0,0,0,0,0,0,0,0,0,0,
531,531,531,0,0,0,0,0,0,0,0,0,0,0,0,0,0,0,0,0,0,0,0,0,0,0,0,0,0,0,0,0,0,0,0,0,0,0,0,0,
531,531,531,0,0,0,0,0,0,0,0,0,0,0,0,0,0,0,0,0,0,0,0,0,0,0,0,0,0,0,0,0,0,0,0,0,0,0,0,0,
531,531,531,0,0,0,0,0,0,0,0,0,0,0,0,0,0,0,0,0,0,0,0,0,0,0,0,0,0,0,0,0,0,0,0,0,0,0,0,0,
531,531,531,0,0,0,0,0,0,0,0,0,0,0,531,531,531,531,531,531,0,0,0,0,0,0,0,0,0,0,531,531,531,531,531,531,531,531,531,531,
531,531,531,0,0,0,0,0,0,0,0,0,0,0,531,531,531,531,531,531,0,0,0,0,0,0,0,0,0,0,531,531,531,531,531,531,531,531,531,531,
531,531,531,0,0,0,0,0,0,0,0,0,0,0,0,0,0,0,0,0,0,0,0,0,0,0,0,0,0,0,0,0,0,0,0,0,0,0,0,0,
531,531,531,0,0,0,0,0,0,0,0,0,0,0,0,0,0,0,0,0,0,0,0,0,0,0,0,0,0,0,0,0,0,0,0,0,0,0,0,0,
531,531,531,0,0,0,0,0,0,0,0,0,0,0,0,0,0,0,0,0,0,0,0,0,0,0,0,0,0,0,0,0,0,0,0,0,0,0,0,0,
531,531,531,0,0,0,0,0,0,0,0,0,0,0,0,0,0,0,0,0,0,0,0,0,0,0,0,0,0,0,0,0,0,0,0,0,0,0,0,0,
531,531,531,0,0,0,0,0,0,0,0,0,0,0,0,0,0,0,0,0,0,0,0,0,0,0,0,0,0,0,0,0,0,0,0,0,0,0,0,0,
531,531,531,0,0,0,0,0,0,0,0,0,0,0,0,0,0,0,0,0,0,0,0,0,0,0,0,0,0,0,0,0,0,0,0,0,0,0,0,0,
531,531,531,0,0,0,0,0,0,0,0,0,0,0,0,0,0,0,0,0,0,0,0,0,0,0,0,0,0,0,0,0,0,531,531,531,531,531,531,531,
531,531,531,0,0,0,0,0,0,0,0,0,0,0,0,0,0,0,0,0,0,0,0,0,0,0,0,0,0,0,0,0,0,531,531,531,531,531,531,531,
531,531,531,531,531,531,531,531,531,531,0,0,0,0,0,0,0,0,0,0,0,0,0,0,0,0,0,0,0,0,0,0,0,531,531,531,531,531,531,531,
531,531,531,531,531,531,531,531,531,531,0,0,0,0,0,0,0,0,0,0,0,0,0,0,0,0,0,0,0,0,0,0,0,531,531,531,531,531,531,531,
531,531,531,531,531,531,531,531,531,531,0,0,0,0,0,0,0,0,0,281,282,283,284,285,0,0,0,0,0,0,0,0,0,531,531,531,531,531,531,531,
531,531,531,531,531,531,531,531,531,531,0,0,0,0,0,0,0,0,0,0,346,347,348,349,0,0,0,0,0,0,0,0,0,531,531,531,531,531,531,531,
531,531,531,531,531,531,531,531,531,531,0,0,0,0,0,0,0,0,0,0,410,411,412,413,0,0,0,0,0,0,0,0,0,531,531,531,531,531,531,531,
531,531,531,531,531,531,531,531,531,531,0,0,0,0,0,0,0,0,0,0,474,475,476,477,0,0,0,0,0,0,0,0,0,531,531,531,531,531,531,531,
531,531,531,531,531,531,531,531,531,531,0,0,0,0,0,0,0,0,0,537,538,538,538,541,0,0,0,0,0,0,0,0,0,531,531,531,531,531,531,531,
531,531,531,531,531,531,531,531,531,531,531,531,531,531,531,531,531,531,531,531,531,531,531,531,531,531,531,531,531,531,531,531,531,531,531,531,531,531,531,531,
531,531,531,531,531,531,531,531,531,531,531,531,531,531,531,531,531,531,531,531,531,531,531,531,531,531,531,531,531,531,531,531,531,531,531,531,531,531,531,531,
531,531,531,531,531,531,531,531,531,531,531,531,531,531,531,531,531,531,531,531,531,531,531,531,531,531,531,531,531,531,531,531,531,531,531,531,531,531,531,531
</data>
  </layer>
 </group>
 <group id="22" name="deja-vu?" offsetx="-800" offsety="384">
  <objectgroup id="27" name="obj.txt">
   <object id="13" name="player" type="player" gid="4449" x="216" y="176" width="16" height="16"/>
  </objectgroup>
  <layer id="23" name="bg.txt" width="40" height="30">
   <data encoding="csv">
531,531,531,531,531,531,531,531,531,531,531,531,531,531,531,531,531,531,531,531,531,531,531,531,531,531,0,0,0,0,0,531,531,531,531,531,531,531,531,531,
531,531,531,531,531,531,531,531,531,531,531,531,531,531,531,531,531,531,531,531,531,531,531,531,531,531,0,0,0,0,0,531,531,531,531,531,531,531,531,531,
531,531,531,531,531,531,531,531,531,531,531,531,531,531,531,531,531,531,531,531,531,531,531,531,531,531,0,0,0,0,0,0,0,0,0,0,0,531,531,531,
531,531,531,531,531,531,531,531,531,531,531,531,531,531,531,531,531,531,531,531,531,531,531,531,531,531,0,0,0,0,0,0,0,0,0,0,0,531,531,531,
531,531,531,531,531,531,531,531,531,531,531,531,531,531,531,531,531,531,531,531,531,531,531,531,531,531,531,531,531,531,531,531,0,0,0,0,0,531,531,531,
531,531,531,531,531,531,531,531,531,531,531,531,531,531,531,531,531,531,531,531,531,531,531,531,531,531,531,531,531,531,531,531,0,0,0,0,0,531,531,531,
0,0,0,0,0,0,0,0,0,0,0,0,0,0,0,0,0,0,0,0,0,0,0,0,0,0,0,0,0,0,0,0,0,0,0,0,0,531,531,531,
0,0,0,0,0,0,0,0,0,0,0,0,0,0,0,0,0,0,0,0,0,0,0,0,0,0,0,0,0,0,0,0,0,0,0,0,0,531,531,531,
0,0,0,0,0,0,0,0,0,0,0,0,0,0,0,0,0,0,0,0,0,0,0,0,0,0,0,0,0,0,0,0,0,0,0,0,0,531,531,531,
0,0,0,0,0,0,0,0,0,0,0,0,0,0,0,0,0,0,0,0,0,0,0,0,0,0,0,0,0,0,0,0,0,0,0,0,0,531,531,531,
531,531,531,531,531,531,531,531,531,531,531,531,531,531,531,531,531,531,531,531,531,531,531,531,531,531,531,531,531,531,531,531,531,531,531,531,531,531,531,531,
531,531,531,531,531,531,531,531,531,531,531,531,531,531,531,531,531,531,531,531,531,531,531,531,531,531,531,531,531,531,531,531,531,531,531,531,531,531,531,531,
0,0,0,0,0,0,0,0,0,0,0,0,0,0,0,0,0,0,0,0,0,0,0,0,0,0,0,0,0,0,0,0,0,0,0,0,0,0,0,0,
0,0,0,0,0,0,0,0,0,0,0,0,0,0,0,0,0,0,0,0,0,0,0,0,0,0,0,0,0,0,0,0,0,0,0,0,0,0,0,0,
0,0,0,0,0,0,0,0,0,0,0,0,0,0,0,0,0,0,0,0,0,0,0,0,0,0,0,0,0,0,0,0,0,0,0,0,0,0,0,0,
0,0,0,0,0,0,0,0,0,0,0,0,0,0,0,0,0,0,0,0,0,0,0,0,0,0,0,0,0,0,0,0,0,0,0,0,0,0,0,0,
0,0,0,0,0,0,0,0,0,0,0,0,0,0,0,0,0,0,0,0,0,0,0,0,0,0,0,0,0,0,0,0,0,0,0,0,0,0,0,0,
0,0,0,0,0,0,0,0,0,0,0,0,0,0,0,0,0,0,0,0,0,0,0,0,0,0,0,0,0,0,0,0,0,0,0,0,0,0,0,0,
531,531,531,531,531,531,0,0,0,0,0,0,0,0,0,0,0,0,0,0,0,0,0,0,0,0,0,0,0,0,0,0,0,0,531,531,531,531,531,531,
531,531,531,531,531,531,0,0,0,0,0,0,0,0,0,0,0,0,0,0,0,0,0,0,0,0,0,0,0,0,0,0,0,0,531,531,531,531,531,531,
531,531,531,531,531,531,0,0,0,0,0,0,0,0,0,0,0,0,0,0,0,0,0,0,0,0,0,0,0,0,0,0,0,0,531,531,531,531,531,531,
531,531,531,531,531,531,0,0,0,0,0,0,0,0,0,0,0,0,0,0,0,0,0,0,0,0,0,0,0,0,0,0,0,0,531,531,531,531,531,531,
531,531,531,531,531,531,0,0,0,0,0,0,0,0,0,0,0,0,0,0,0,0,0,0,0,0,0,0,0,0,0,0,0,0,531,531,531,531,531,531,
531,531,531,531,531,531,0,0,0,0,0,0,0,0,0,0,0,0,0,0,0,0,0,0,0,0,0,0,0,0,0,0,0,0,531,531,531,531,531,531,
531,531,531,531,531,531,0,0,0,0,0,0,0,0,0,0,0,0,0,0,0,0,0,0,0,0,0,0,0,0,0,0,0,0,531,531,531,531,531,531,
531,531,531,531,531,531,0,0,0,0,0,0,0,0,0,0,0,0,0,0,0,0,0,0,0,0,0,0,0,0,0,0,0,0,531,531,531,531,531,531,
531,531,531,531,531,531,0,0,0,0,0,0,0,0,0,0,0,0,0,0,0,0,0,0,0,0,0,0,0,0,0,0,0,0,531,531,531,531,531,531,
531,531,531,531,531,531,531,531,531,531,531,531,531,531,531,531,531,531,531,531,531,531,531,531,531,531,531,531,531,531,531,531,531,531,531,531,531,531,531,531,
531,531,531,531,531,531,531,531,531,531,531,531,531,531,531,531,531,531,531,531,531,531,531,531,531,531,531,531,531,531,531,531,531,531,531,531,531,531,531,531,
531,531,531,531,531,531,531,531,531,531,531,531,531,531,531,531,531,531,531,531,531,531,531,531,531,531,531,531,531,531,531,531,531,531,531,531,531,531,531,531
</data>
  </layer>
 </group>
 <group id="19" name="now-with-timming" offsetx="-480" offsety="384">
  <objectgroup id="26" name="obj.txt">
   <object id="12" name="player" type="player" gid="4449" x="216" y="176" width="16" height="16"/>
   <object id="22" name="exit_2" type="loader" x="24" y="-8" width="88" height="16">
    <properties>
     <property name="id" type="int" value="2"/>
     <property name="map" value="a-perfectly-plausible-jump"/>
    </properties>
   </object>
  </objectgroup>
  <layer id="21" name="bg.txt" width="40" height="30">
   <data encoding="csv">
531,531,531,0,0,0,0,0,0,0,0,0,0,0,531,531,531,531,531,531,531,531,531,531,531,531,531,531,531,531,531,531,531,531,531,531,531,531,531,531,
531,531,531,0,0,0,0,0,0,0,0,0,0,0,531,531,531,531,531,531,531,531,531,531,531,531,531,531,531,531,531,531,531,531,531,531,531,531,531,531,
531,531,531,0,0,0,0,0,0,0,0,0,0,0,531,531,531,531,531,531,531,531,531,531,531,531,531,531,531,531,531,531,531,531,531,531,531,531,531,531,
531,531,531,0,0,0,0,0,0,0,0,0,0,0,0,0,0,0,0,0,0,0,0,0,0,0,0,0,0,0,0,0,0,0,0,0,0,531,531,531,
531,531,531,0,0,0,0,0,0,0,0,0,0,0,0,0,0,0,0,0,0,0,0,0,0,0,0,0,0,0,0,0,0,0,0,0,0,531,531,531,
531,531,531,0,0,0,0,0,0,0,0,0,0,0,0,0,0,0,0,0,0,0,0,0,0,0,0,0,0,0,0,0,0,0,0,0,0,531,531,531,
531,531,531,0,0,0,0,0,0,0,0,0,0,0,0,0,0,0,0,0,0,0,0,0,0,0,0,0,0,0,0,0,0,0,0,0,0,531,531,531,
531,531,531,0,0,0,0,0,0,0,0,0,0,0,0,0,0,0,0,0,0,0,0,0,0,0,0,0,0,0,0,0,0,0,0,0,0,531,531,531,
531,531,531,531,531,531,531,531,531,531,531,531,531,531,531,531,531,531,531,531,531,531,531,531,531,531,531,0,0,0,0,0,0,0,0,0,0,531,531,531,
531,531,531,531,531,531,531,531,531,531,531,531,531,531,531,531,531,531,531,531,531,531,531,531,531,531,531,0,0,0,0,0,0,0,0,0,0,531,531,531,
531,531,531,531,531,531,531,531,531,531,531,531,531,531,531,531,531,531,531,531,531,531,531,531,531,531,531,0,0,0,0,0,0,0,0,0,0,531,531,531,
531,531,531,531,531,531,531,531,531,531,531,531,531,531,531,531,531,531,531,531,531,531,531,531,531,531,531,0,0,0,0,0,0,0,0,0,0,531,531,531,
0,0,0,0,0,0,0,0,0,0,0,0,0,0,0,0,0,0,0,0,0,0,0,0,0,0,0,0,0,0,0,0,0,0,0,0,0,531,531,531,
0,0,0,0,0,0,0,0,0,0,0,0,0,0,0,0,0,0,0,0,0,0,0,0,0,0,0,0,0,0,0,0,0,0,0,0,0,531,531,531,
0,0,0,0,0,0,0,0,0,0,0,0,0,0,0,0,0,0,0,0,0,0,0,0,0,0,0,0,0,0,0,0,0,0,0,0,0,531,531,531,
0,0,0,0,0,0,0,0,0,0,0,0,0,0,0,0,0,0,0,0,0,0,0,0,0,0,0,0,0,0,0,0,0,0,0,0,0,531,531,531,
0,0,0,0,0,0,0,0,0,0,0,0,0,0,0,0,0,0,0,0,0,0,0,0,0,0,0,0,0,0,0,0,0,0,0,0,0,531,531,531,
0,0,0,0,0,0,0,0,0,0,0,0,0,0,0,0,0,0,0,0,0,0,0,0,0,0,0,0,0,0,0,0,0,0,0,0,0,531,531,531,
531,531,531,531,531,0,0,0,0,0,0,0,0,0,0,0,0,0,0,0,0,0,0,0,0,0,0,0,0,0,0,0,0,0,0,0,0,531,531,531,
531,531,531,531,531,0,0,0,0,0,0,0,0,0,0,0,0,0,0,0,0,0,0,0,0,0,0,0,0,0,0,0,0,0,0,0,0,531,531,531,
531,531,531,531,531,0,0,0,0,0,0,0,0,0,0,0,0,0,0,0,0,0,0,0,0,0,0,0,0,0,0,0,0,0,0,0,0,531,531,531,
531,531,531,531,531,0,0,0,0,0,0,0,0,0,0,0,0,0,0,0,0,0,0,0,0,0,0,0,0,0,0,0,0,0,0,0,0,531,531,531,
531,531,531,531,531,0,0,0,0,0,0,0,0,0,0,0,0,0,0,0,0,0,0,0,0,0,0,0,0,0,0,0,0,0,0,0,0,531,531,531,
531,531,531,531,531,0,0,0,0,0,0,0,0,0,0,0,0,0,0,0,0,0,0,0,0,0,0,0,0,0,0,0,0,0,0,0,0,531,531,531,
531,531,531,531,531,0,0,0,0,0,0,0,0,0,0,0,0,0,0,0,0,0,0,0,0,0,0,0,0,0,0,0,0,0,0,0,0,531,531,531,
531,531,531,531,531,0,0,0,0,0,0,0,0,0,0,0,0,0,0,0,0,0,0,0,0,0,0,0,0,0,0,0,0,0,0,0,0,531,531,531,
531,531,531,531,531,0,0,0,0,0,0,0,0,0,0,0,0,0,0,0,0,0,0,0,0,0,0,0,0,0,0,0,0,0,0,0,0,531,531,531,
531,531,531,531,531,531,531,531,531,531,531,531,531,531,531,531,531,531,531,531,531,531,531,531,531,531,531,531,531,531,531,531,531,531,531,531,531,531,531,531,
531,531,531,531,531,531,531,531,531,531,531,531,531,531,531,531,531,531,531,531,531,531,531,531,531,531,531,531,531,531,531,531,531,531,531,531,531,531,531,531,
531,531,531,531,531,531,531,531,531,531,531,531,531,531,531,531,531,531,531,531,531,531,531,531,531,531,531,531,531,531,531,531,531,531,531,531,531,531,531,531
</data>
  </layer>
 </group>
 <group id="15" name="a-perfectly-plausible-jump" offsetx="-640" offsety="144">
  <objectgroup id="17" name="obj.txt">
   <object id="11" name="player" type="player" gid="4449" x="216" y="176" width="16" height="16"/>
   <object id="20" name="exit_1" type="loader" x="312" y="24" width="16" height="48">
    <properties>
     <property name="id" type="int" value="1"/>
     <property name="map" value="no-way-back?"/>
    </properties>
   </object>
   <object id="21" name="exit_2" type="loader" x="184" y="232" width="88" height="16">
    <properties>
     <property name="id" type="int" value="2"/>
     <property name="map" value="now-with-timming"/>
    </properties>
   </object>
  </objectgroup>
  <layer id="16" name="bg.txt" width="40" height="30">
   <data encoding="csv">
531,531,531,531,531,531,531,531,531,531,531,531,531,531,531,531,531,531,531,531,531,531,531,531,531,531,531,531,531,531,531,531,531,531,531,531,531,531,531,531,
531,531,531,531,531,531,531,531,531,531,531,531,531,531,531,531,531,531,531,531,531,531,531,531,531,531,531,531,531,531,531,531,531,531,531,531,531,531,531,531,
531,531,531,531,531,531,531,531,531,531,531,531,531,531,531,531,531,531,531,531,531,531,531,531,531,531,531,531,531,531,531,531,531,531,531,531,531,531,531,531,
0,0,0,0,0,0,0,0,0,0,0,0,0,0,0,0,0,0,0,0,0,0,0,0,0,0,0,0,0,0,0,0,0,0,0,0,0,0,0,0,
0,0,0,0,0,0,0,0,0,0,0,0,0,0,0,0,0,0,0,0,0,0,0,0,0,0,0,0,0,0,0,0,0,0,0,0,0,0,0,0,
0,0,0,0,0,0,0,0,0,0,0,0,0,0,0,0,0,0,0,0,0,0,0,0,0,0,0,0,0,0,0,0,0,0,0,0,0,0,0,0,
0,0,0,0,0,0,0,0,0,0,0,0,0,0,0,0,0,0,0,0,0,0,0,0,0,0,0,0,0,0,0,0,0,0,0,0,0,0,0,0,
0,0,0,0,0,0,0,0,0,0,0,0,0,0,0,0,0,0,0,0,0,0,0,0,0,0,0,0,0,0,0,0,0,0,0,0,0,0,0,0,
0,0,0,0,0,0,0,0,0,0,0,0,0,0,0,0,0,0,0,0,0,0,0,0,0,0,0,0,0,0,0,0,0,0,0,0,0,0,0,0,
531,531,531,531,531,531,0,0,0,0,0,0,0,0,0,0,0,531,531,531,531,531,531,0,0,0,0,0,0,0,0,0,0,0,531,531,531,531,531,531,
531,531,531,531,531,531,0,0,0,0,0,0,0,0,0,0,0,531,531,531,531,531,531,0,0,0,0,0,0,0,0,0,0,0,531,531,531,531,531,531,
531,531,531,531,531,531,0,0,0,0,0,0,0,0,0,0,0,531,531,531,531,531,531,0,0,0,0,0,0,0,0,0,0,0,531,531,531,531,531,531,
531,531,531,531,531,531,0,0,0,0,0,0,0,0,0,0,0,531,531,531,531,531,531,0,0,0,0,0,0,0,0,0,0,0,531,531,531,531,531,531,
531,531,531,531,531,531,0,0,0,0,0,0,0,0,0,0,0,531,531,531,531,531,531,0,0,0,0,0,0,0,0,0,0,0,531,531,531,531,531,531,
531,531,531,531,531,531,0,0,0,0,0,0,0,0,0,0,0,531,531,531,531,531,531,0,0,0,0,0,0,0,0,0,0,0,531,531,531,531,531,531,
531,531,531,531,531,531,0,0,0,0,0,0,0,0,0,0,0,531,531,531,531,531,531,0,0,0,0,0,0,0,0,0,0,0,531,531,531,531,531,531,
531,531,531,531,531,531,0,0,0,0,0,0,0,0,0,0,0,531,531,531,531,531,531,0,0,0,0,0,0,0,0,0,0,0,531,531,531,531,531,531,
531,531,531,531,531,531,0,0,0,0,0,0,0,0,0,0,0,531,531,531,531,531,531,0,0,0,0,0,0,0,0,0,0,0,531,531,531,531,531,531,
531,531,531,531,531,531,0,0,0,0,0,0,0,0,0,0,0,531,531,531,531,531,531,0,0,0,0,0,0,0,0,0,0,0,531,531,531,531,531,531,
531,531,531,531,531,531,531,531,531,531,531,531,531,0,0,0,0,531,531,531,531,531,531,0,0,0,0,0,0,0,0,0,0,0,531,531,531,531,531,531,
531,531,531,531,531,531,531,531,531,531,531,531,531,0,0,0,0,531,531,531,531,531,531,0,0,0,0,0,0,0,0,0,0,0,531,531,531,531,531,531,
531,531,531,531,531,531,531,531,531,531,531,531,531,0,0,0,0,531,531,531,531,531,531,0,0,0,0,0,0,0,0,0,0,0,531,531,531,531,531,531,
531,531,531,531,531,531,531,531,531,531,531,531,531,0,0,0,0,531,531,531,531,531,531,0,0,0,0,0,0,0,0,0,0,0,531,531,531,531,531,531,
531,531,531,531,531,531,0,0,0,0,0,0,0,0,0,0,0,531,531,531,531,531,531,0,0,0,0,0,0,0,0,0,0,0,531,531,531,531,531,531,
531,531,531,531,531,531,0,0,0,0,0,0,0,0,0,0,0,531,531,531,531,531,531,0,0,0,0,0,0,0,0,0,0,0,531,531,531,531,531,531,
531,531,531,531,531,531,0,0,0,0,0,0,0,0,0,0,0,531,531,531,531,531,531,0,0,0,0,0,0,0,0,0,0,0,531,531,531,531,531,531,
531,531,531,531,531,531,0,0,0,0,0,0,0,0,0,0,0,531,531,531,531,531,531,0,0,0,0,0,0,0,0,0,0,0,531,531,531,531,531,531,
531,531,531,531,531,531,0,0,0,0,0,531,531,531,531,531,531,531,531,531,531,531,531,0,0,0,0,0,0,0,0,0,0,0,531,531,531,531,531,531,
531,531,531,531,531,531,0,0,0,0,0,531,531,531,531,531,531,531,531,531,531,531,531,0,0,0,0,0,0,0,0,0,0,0,531,531,531,531,531,531,
531,531,531,531,531,531,0,0,0,0,0,531,531,531,531,531,531,531,531,531,531,531,531,0,0,0,0,0,0,0,0,0,0,0,531,531,531,531,531,531
</data>
  </layer>
 </group>
 <group id="11" name="no-way-back?" offsetx="-320" offsety="144">
  <objectgroup id="13" name="obj.txt">
   <object id="10" name="player" type="player" gid="4449" x="216" y="176" width="16" height="16"/>
   <object id="16" name="exit_0" type="loader" x="312" y="24" width="16" height="48">
    <properties>
     <property name="id" type="int" value="0"/>
     <property name="map" value="temple-entrance"/>
    </properties>
   </object>
   <object id="19" name="exit_1" type="loader" x="-8" y="24" width="16" height="48">
    <properties>
     <property name="id" type="int" value="1"/>
     <property name="map" value="a-perfectly-plausible-jump"/>
    </properties>
   </object>
  </objectgroup>
  <layer id="14" name="bg.txt" width="40" height="30">
   <data encoding="csv">
531,531,531,531,531,531,531,531,531,531,531,531,531,531,531,531,531,531,531,531,531,531,531,531,531,531,531,531,531,531,531,531,531,531,531,531,531,531,531,531,
531,531,531,531,531,531,531,531,531,531,531,531,531,531,531,531,531,531,531,531,531,531,531,531,531,531,531,531,531,531,531,531,531,531,531,531,531,531,531,531,
531,531,531,531,531,531,531,531,531,531,531,531,531,531,531,531,531,531,531,531,531,531,531,531,531,531,531,531,531,531,531,531,531,531,531,531,531,531,531,531,
0,0,0,0,0,0,0,0,0,0,0,0,0,0,0,0,0,0,0,0,0,0,0,0,0,0,531,531,531,531,0,0,0,0,0,0,0,0,0,0,
0,0,0,0,0,0,0,0,0,0,0,0,0,0,0,0,0,0,0,0,0,0,0,0,0,0,531,531,531,531,0,0,0,0,0,0,0,0,0,0,
0,0,0,0,0,0,0,0,0,0,0,0,0,0,0,0,0,0,0,0,0,0,0,0,0,0,531,531,531,531,0,0,0,0,0,0,0,0,0,0,
0,0,0,0,0,0,0,0,0,0,0,0,0,0,0,0,0,0,0,0,0,0,0,0,0,0,531,531,531,531,0,0,0,0,0,0,0,0,0,0,
0,0,0,0,0,0,0,0,531,531,0,0,0,531,531,0,0,0,0,0,0,0,0,0,0,0,531,531,531,531,0,0,0,0,0,0,0,0,0,0,
0,0,0,0,0,0,0,0,531,531,0,0,0,531,531,0,0,0,531,531,0,0,0,0,0,0,531,531,531,531,0,0,0,0,0,0,0,0,0,0,
531,531,531,531,531,0,0,0,0,0,0,0,0,0,0,0,0,0,531,531,0,0,0,0,0,0,531,531,531,531,0,0,0,0,531,531,531,531,531,531,
531,531,531,531,531,0,0,0,0,0,0,0,0,0,0,0,0,0,0,0,0,0,0,531,531,531,531,531,531,531,0,0,0,0,531,531,531,531,531,531,
531,531,531,531,531,0,0,0,0,0,0,0,0,0,0,0,0,0,0,0,0,0,0,531,531,531,531,531,531,531,0,0,0,0,531,531,531,531,531,531,
531,531,531,531,531,0,0,0,0,0,0,0,0,0,0,0,0,0,0,0,531,531,531,531,531,531,531,531,531,531,0,0,0,0,531,531,531,531,531,531,
531,531,531,531,531,0,0,0,0,0,0,0,0,0,0,0,0,0,0,0,531,531,531,531,531,531,531,531,531,531,0,0,0,0,531,531,531,531,531,531,
531,531,531,531,531,0,0,0,0,0,0,0,0,0,0,0,0,531,531,531,531,531,531,531,531,531,531,531,531,531,0,0,0,0,531,531,531,531,531,531,
531,531,531,531,531,0,0,0,0,0,0,0,0,0,0,0,0,531,531,531,531,531,531,531,531,531,531,531,531,531,0,0,0,0,531,531,531,531,531,531,
531,531,531,531,531,0,0,0,0,0,0,531,531,531,0,0,0,0,0,0,0,0,0,0,0,0,0,0,0,0,0,0,0,0,531,531,531,531,531,531,
531,531,531,531,531,0,0,0,0,0,0,531,531,531,0,0,0,0,0,0,0,0,0,0,0,0,0,0,0,0,0,0,0,0,531,531,531,531,531,531,
531,531,531,531,531,531,531,531,0,0,0,0,0,0,0,0,0,0,0,0,0,0,0,0,0,0,0,0,0,0,0,0,0,0,531,531,531,531,531,531,
531,531,531,531,531,531,531,531,0,0,0,0,0,0,0,0,0,0,0,0,0,0,0,0,0,0,0,0,0,0,0,0,0,0,531,531,531,531,531,531,
531,531,531,531,531,531,531,531,531,531,531,0,0,0,0,0,0,0,0,0,0,0,0,0,0,0,0,0,0,0,0,0,0,0,531,531,531,531,531,531,
531,531,531,531,531,531,531,531,531,531,531,0,0,0,0,0,0,0,0,0,0,0,0,0,0,0,0,0,0,0,0,0,0,0,531,531,531,531,531,531,
531,531,531,531,531,531,531,531,531,531,531,531,531,531,531,531,531,0,0,0,0,0,0,0,0,0,0,0,0,0,0,0,0,0,531,531,531,531,531,531,
531,531,531,531,531,531,531,531,531,531,531,531,531,531,531,531,531,0,0,0,0,0,0,0,0,0,0,0,0,0,0,0,0,0,531,531,531,531,531,531,
531,531,531,531,531,531,531,531,531,531,531,531,531,531,531,531,531,531,531,531,531,531,531,0,0,0,0,0,0,0,0,0,0,0,531,531,531,531,531,531,
531,531,531,531,531,531,531,531,531,531,531,531,531,531,531,531,531,531,531,531,531,531,531,0,0,0,0,0,0,0,0,0,0,0,531,531,531,531,531,531,
531,531,531,531,531,531,531,531,531,531,531,531,531,531,531,531,531,531,531,531,531,531,531,531,531,531,531,531,531,531,531,531,531,531,531,531,531,531,531,531,
531,531,531,531,531,531,531,531,531,531,531,531,531,531,531,531,531,531,531,531,531,531,531,531,531,531,531,531,531,531,531,531,531,531,531,531,531,531,531,531,
531,531,531,531,531,531,531,531,531,531,531,531,531,531,531,531,531,531,531,531,531,531,531,531,531,531,531,531,531,531,531,531,531,531,531,531,531,531,531,531,
531,531,531,531,531,531,531,531,531,531,531,531,531,531,531,531,531,531,531,531,531,531,531,531,531,531,531,531,531,531,531,531,531,531,531,531,531,531,531,531
</data>
  </layer>
 </group>
 <group id="9" name="temple-entrance">
  <objectgroup id="10" name="obj.txt">
   <object id="9" name="player" type="player" gid="4449" x="152" y="168" width="16" height="16"/>
   <object id="15" name="exit_0" type="loader" x="-8" y="168" width="16" height="48">
    <properties>
     <property name="id" type="int" value="0"/>
     <property name="map" value="no-way-back?"/>
    </properties>
   </object>
  </objectgroup>
  <layer id="1" name="bg.txt" width="40" height="30">
   <properties>
    <property name="bg-color" type="color" value="#ff222034"/>
   </properties>
   <data encoding="csv">
340,341,340,341,340,341,340,341,340,341,340,341,340,341,342,409,0,0,0,0,0,0,0,0,0,0,339,340,341,340,341,340,341,340,341,340,341,340,341,340,
341,340,341,340,341,340,341,340,341,340,341,340,341,340,280,409,0,0,0,0,0,0,0,0,0,0,279,341,340,341,340,341,340,341,340,341,340,341,340,341,
340,341,340,341,340,341,340,341,340,341,340,341,340,341,342,409,0,0,0,0,0,0,0,0,0,0,339,340,341,340,341,340,341,340,341,340,341,340,341,340,
341,340,341,340,341,340,341,340,341,340,341,340,341,340,280,409,0,0,0,0,0,0,0,0,0,0,279,341,340,341,340,341,340,341,340,341,340,341,340,341,
405,404,405,404,405,404,405,404,405,404,405,404,405,404,472,473,0,0,0,0,0,0,0,0,0,0,471,405,404,405,404,405,404,405,404,405,404,405,404,405,
0,0,0,0,0,0,0,0,0,0,467,468,469,470,0,0,0,0,0,0,0,0,0,0,0,0,0,467,468,469,470,0,0,0,0,0,0,0,0,0,
0,0,0,0,0,0,0,0,0,0,0,532,661,0,0,0,0,0,0,0,0,0,0,0,0,0,0,0,532,661,0,0,0,0,0,0,0,0,0,0,
0,0,0,0,0,0,0,0,0,0,0,532,661,0,0,0,0,0,0,0,0,0,0,0,0,0,0,0,532,661,0,0,0,0,0,0,0,0,0,0,
0,0,0,0,0,0,0,0,0,0,0,532,661,0,0,0,0,0,0,0,0,0,0,0,0,0,0,0,532,661,0,0,0,0,0,0,0,0,0,0,
0,0,0,0,0,0,0,0,0,0,0,595,661,0,0,0,0,0,0,0,0,0,0,0,0,0,0,0,532,533,0,0,0,0,0,0,0,0,0,0,
344,344,344,344,344,344,345,0,0,0,0,0,534,0,0,0,0,0,0,0,0,0,0,0,0,0,0,0,596,0,0,0,0,0,343,344,344,344,344,344,
277,276,277,276,277,278,409,0,0,0,0,0,0,0,0,0,0,602,603,603,603,603,604,0,0,0,0,0,0,0,0,0,0,0,275,276,277,276,277,276,
662,340,341,340,599,342,409,0,0,0,0,0,0,0,0,602,603,603,603,603,603,604,0,0,0,0,0,0,0,0,0,0,0,0,339,340,341,340,341,340,
340,341,662,662,340,280,409,0,0,0,0,0,0,0,0,0,539,603,603,603,603,603,604,0,0,0,0,0,0,0,0,0,0,0,279,341,340,341,340,341,
662,662,662,340,341,342,409,0,0,0,0,0,0,0,0,602,603,603,603,603,603,604,601,0,0,0,0,0,0,0,0,0,0,0,339,340,341,340,341,340,
340,341,662,662,340,280,409,0,0,0,0,0,0,0,0,0,0,0,0,0,0,602,603,604,0,0,0,0,0,0,0,0,0,0,279,341,340,341,340,341,
662,535,341,662,662,342,409,0,0,0,0,0,0,0,0,0,0,0,0,0,0,0,0,0,0,0,0,0,0,0,0,0,0,0,339,340,341,340,341,340,
662,662,662,662,340,280,409,0,0,0,0,0,0,0,0,0,0,0,0,0,0,0,0,0,0,0,0,0,0,0,0,0,0,0,279,341,340,341,340,341,
662,340,599,600,341,342,409,0,0,0,0,0,0,0,0,0,0,0,0,0,0,0,0,0,0,0,0,0,0,0,0,0,0,0,339,340,341,340,341,340,
340,341,340,341,340,280,409,0,0,0,0,0,0,0,0,0,0,0,0,0,0,0,0,0,0,0,0,0,0,0,0,0,0,0,279,341,340,341,340,341,
404,405,404,405,404,472,473,0,0,0,0,659,0,0,0,0,0,0,0,0,0,0,0,0,0,0,0,0,0,597,0,0,0,0,339,340,341,340,341,340,
0,0,0,0,0,0,0,0,0,0,0,532,598,0,0,0,0,0,0,0,0,0,0,0,0,0,0,0,660,661,0,0,0,0,279,341,340,341,340,341,
0,0,601,601,0,0,0,0,0,0,0,532,661,0,0,0,0,0,281,282,283,284,285,0,0,0,0,0,532,661,0,0,0,0,339,340,341,340,341,340,
0,539,603,603,540,0,0,0,0,0,0,532,661,0,0,0,0,0,0,346,347,348,0,0,0,0,0,0,532,661,0,0,0,0,279,341,340,341,340,341,
0,602,603,603,604,0,0,0,0,0,0,532,661,0,0,0,0,0,0,410,411,412,0,0,0,0,0,0,532,661,0,0,0,0,339,340,341,340,341,340,
0,0,0,0,0,0,0,0,0,0,723,724,725,726,0,0,0,0,0,474,475,476,0,0,0,0,0,723,724,725,726,0,0,0,279,341,340,341,340,341,
344,344,344,344,344,344,344,344,344,344,344,344,344,344,344,344,344,344,537,538,538,538,541,344,344,344,344,344,344,344,344,344,344,344,339,340,341,340,341,340,
277,276,277,276,277,276,277,276,277,276,277,276,277,276,277,276,277,276,277,276,277,276,277,276,277,276,277,276,277,276,277,276,277,276,340,341,340,341,340,341,
341,340,341,340,341,340,341,340,341,340,341,340,341,340,341,340,341,340,341,340,341,340,341,340,341,340,341,340,341,340,341,340,341,340,341,340,341,340,341,340,
340,341,340,341,340,341,340,341,340,341,340,341,340,341,340,341,340,341,340,341,340,341,340,341,340,341,340,341,340,341,340,341,340,341,340,341,340,341,340,341
</data>
  </layer>
 </group>
 <group id="5" name="dummy-cave" offsetx="320" offsety="0">
  <layer id="6" name="bg.txt" width="40" height="30">
   <data encoding="csv">
662,662,662,662,662,662,662,662,662,662,662,662,417,417,418,355,0,0,0,0,0,0,0,0,0,0,417,417,417,417,662,662,662,662,662,662,662,662,417,417,
662,662,662,662,662,417,662,662,662,417,417,662,417,417,418,355,0,0,0,0,0,0,0,0,0,0,417,417,417,662,662,662,662,417,417,662,662,662,417,417,
417,417,662,662,662,417,417,662,662,417,417,662,662,417,418,355,0,0,0,0,0,0,0,0,0,0,417,417,662,662,662,662,417,417,417,417,662,662,662,417,
417,417,417,417,417,417,417,417,662,417,417,417,662,417,418,355,0,0,0,0,0,0,0,0,0,0,417,417,417,417,662,417,417,417,417,417,417,417,417,417,
417,417,417,417,417,417,417,417,417,417,417,417,417,417,418,419,0,0,0,0,0,0,0,0,0,0,417,417,417,417,417,417,417,417,417,417,417,417,417,417,
0,0,0,0,0,0,0,0,0,0,467,468,469,470,0,0,0,0,0,0,0,0,0,0,0,0,0,467,468,469,470,0,0,0,0,0,0,0,0,0,
0,0,0,0,0,0,0,0,0,0,0,532,661,0,0,0,0,0,0,0,0,0,0,0,0,0,0,0,532,661,0,0,0,0,0,0,0,0,0,0,
0,0,0,0,0,0,0,0,0,0,0,532,661,0,0,0,0,0,0,0,0,0,0,0,0,0,0,0,532,661,0,0,0,0,0,0,0,0,0,0,
0,0,0,0,0,0,0,0,0,0,0,532,661,0,0,0,0,0,0,0,0,0,0,0,0,0,0,0,532,661,0,0,0,0,0,0,0,0,0,0,
0,0,0,0,0,0,0,0,0,0,0,595,661,0,0,0,0,0,0,0,0,0,0,0,0,0,0,0,532,533,0,0,0,0,0,0,0,0,0,0,
290,290,290,290,290,290,291,0,0,0,0,0,534,0,0,0,0,0,0,0,0,0,0,0,0,0,0,0,596,0,0,0,0,0,289,290,290,290,290,290,
353,353,353,353,353,354,355,0,0,0,0,0,0,0,0,0,0,0,0,0,0,0,0,0,0,0,0,0,0,0,0,0,0,0,353,353,353,353,353,353,
417,417,417,417,417,418,355,0,0,0,0,0,0,0,0,0,0,0,0,0,0,0,0,0,0,0,0,0,0,0,0,0,0,0,417,417,417,417,417,417,
417,662,662,417,417,418,355,0,0,0,0,0,0,0,0,0,0,0,0,0,0,0,0,0,0,0,0,0,0,0,0,0,0,0,417,417,417,417,417,417,
662,662,662,662,417,418,355,0,0,0,356,356,0,0,0,0,0,0,0,0,0,0,0,0,0,0,0,0,0,0,0,0,0,0,417,417,417,417,417,417,
356,356,662,662,417,418,355,0,0,0,420,420,356,0,0,0,0,0,0,0,0,0,0,0,0,0,0,0,0,0,0,0,0,0,417,417,417,417,417,417,
420,420,662,417,417,418,355,0,0,0,0,420,420,356,0,0,0,0,0,0,0,0,0,0,0,0,0,0,0,0,0,0,0,0,417,417,417,417,417,417,
662,662,662,417,417,418,355,0,0,420,420,0,420,356,0,0,0,0,0,0,0,0,0,0,0,0,0,0,0,0,0,0,0,0,417,417,417,417,417,417,
417,417,662,662,417,418,355,0,0,0,420,0,0,0,0,0,0,0,0,0,0,0,0,0,0,0,0,0,0,0,0,0,0,0,417,417,417,417,417,417,
417,417,417,417,417,418,355,0,0,0,0,0,0,0,0,0,0,0,0,0,0,0,0,0,0,0,0,0,0,0,0,0,0,0,417,417,417,417,417,417,
417,417,417,417,417,418,419,0,0,0,0,659,0,0,0,0,0,0,0,0,0,0,0,0,0,0,0,0,0,597,0,0,0,0,417,417,417,417,417,417,
0,0,0,0,0,0,0,0,0,0,0,532,598,0,0,0,0,0,0,0,0,0,0,0,0,0,0,0,660,661,0,0,0,0,417,417,417,417,417,417,
0,0,0,0,0,0,0,0,0,0,0,532,661,0,0,0,0,0,281,282,283,284,285,0,0,0,0,0,532,661,0,0,0,0,417,417,417,417,417,417,
0,0,356,356,0,0,0,0,0,0,0,532,661,0,0,0,0,0,0,346,347,348,0,0,0,0,0,0,532,661,0,0,0,0,417,417,417,417,417,417,
0,0,420,420,0,0,0,0,0,0,0,532,661,0,0,0,0,0,0,410,411,412,0,0,0,0,0,0,532,661,0,0,0,0,417,417,417,417,417,417,
0,0,0,0,0,0,0,0,0,0,723,724,725,726,0,0,0,0,0,474,475,476,0,0,0,0,0,723,724,725,726,0,0,0,417,417,417,417,417,417,
290,290,290,290,290,290,290,290,290,290,290,290,290,290,290,290,290,290,537,538,538,538,541,290,290,290,290,290,290,290,290,290,290,290,417,417,417,417,417,417,
353,353,353,353,353,353,353,353,353,353,353,353,353,353,353,353,353,353,353,353,353,353,353,353,353,353,353,353,353,353,353,353,353,353,417,417,417,417,417,417,
417,417,417,417,417,417,417,417,417,417,417,417,417,417,417,417,417,417,417,417,417,417,417,417,417,417,417,417,417,417,417,417,417,417,417,417,417,417,417,417,
417,417,417,417,417,417,417,417,417,417,417,417,417,417,417,417,417,417,417,417,417,417,417,417,417,417,417,417,417,417,417,417,417,417,417,417,417,417,417,417
</data>
  </layer>
  <layer id="7" name="fg.txt" width="40" height="30" offsetx="3" offsety="4">
   <properties>
    <property name="bg-color" type="color" value="#ff222034"/>
   </properties>
   <data encoding="csv">
0,0,0,0,0,0,0,0,0,0,0,0,545,545,0,0,0,0,0,0,0,0,0,0,0,0,545,545,0,0,0,0,0,0,0,0,0,0,545,0,
0,0,0,0,0,546,0,0,0,545,0,0,481,545,0,0,0,0,0,0,0,0,0,0,0,0,545,0,0,0,0,0,0,545,0,0,0,0,0,0,
545,0,0,546,0,545,0,0,0,545,546,0,0,545,0,0,0,0,0,0,0,0,0,0,0,0,545,0,0,0,0,0,545,545,545,0,0,0,0,0,
545,545,545,545,545,545,545,0,0,545,545,0,546,545,0,0,0,0,0,0,0,0,0,0,0,0,545,545,545,0,0,545,545,545,545,545,545,545,545,0,
0,0,0,0,0,0,0,0,0,0,0,0,0,0,0,0,0,0,0,0,0,0,0,0,0,0,0,0,0,0,0,0,0,0,0,0,0,0,0,0,
0,0,0,0,0,0,0,0,0,0,0,0,0,0,0,0,0,0,0,0,0,0,0,0,0,0,0,0,0,0,0,0,0,0,0,0,0,0,0,0,
0,0,0,0,0,0,0,0,0,0,0,0,0,0,0,0,0,0,0,0,0,0,0,0,0,0,0,0,0,0,0,0,0,0,0,0,0,0,0,0,
0,0,0,0,0,0,0,0,0,0,0,0,0,0,0,0,0,0,0,0,0,0,0,0,0,0,0,0,0,0,0,0,0,0,0,0,0,0,0,0,
0,0,0,0,0,0,0,0,0,0,0,0,0,0,0,0,0,0,0,0,0,0,0,0,0,0,0,0,0,0,0,0,0,0,0,0,0,0,0,0,
0,0,0,0,0,0,0,0,0,0,0,0,0,0,0,0,0,0,0,0,0,0,0,0,0,0,0,0,0,0,0,0,0,0,0,0,0,0,0,0,
0,0,0,0,0,0,0,0,0,0,0,0,0,0,0,0,0,0,0,0,0,0,0,0,0,0,0,0,0,0,0,0,0,0,0,0,0,0,0,0,
545,545,545,545,545,0,0,0,0,0,0,0,0,0,0,0,0,0,0,0,0,0,0,0,0,0,0,0,0,0,0,0,0,0,545,545,545,545,545,0,
545,481,0,545,545,0,0,0,0,0,0,0,0,0,0,0,0,0,0,0,0,0,0,0,0,0,0,0,0,0,0,0,0,0,545,545,545,545,545,0,
0,0,0,481,545,0,0,0,0,0,0,0,0,0,0,0,0,0,0,0,0,0,0,0,0,0,0,0,0,0,0,0,0,0,545,545,545,545,545,0,
0,0,0,0,545,0,0,0,0,484,547,547,0,0,0,0,0,0,0,0,0,0,0,0,0,0,0,0,0,0,0,0,0,0,545,545,545,545,545,0,
547,0,0,546,545,0,0,0,0,0,0,547,0,0,0,0,0,0,0,0,0,0,0,0,0,0,0,0,0,0,0,0,0,0,545,545,545,545,545,0,
0,0,1115,545,545,0,0,0,0,548,548,0,547,0,0,0,0,0,0,0,0,0,0,0,0,0,0,0,0,0,0,0,0,0,545,545,545,545,545,0,
0,0,0,481,545,0,0,0,0,483,0,0,484,0,0,0,0,0,0,0,0,0,0,0,0,0,0,0,0,0,0,0,0,0,545,545,545,545,545,0,
545,545,0,546,545,0,0,0,0,0,0,0,0,0,0,0,0,0,0,0,0,0,0,0,0,0,0,0,0,0,0,0,0,0,545,545,545,545,545,0,
545,545,545,545,545,0,0,0,0,0,0,0,0,0,0,0,0,0,0,0,0,0,0,0,0,0,0,0,0,0,0,0,0,0,545,545,545,545,545,0,
0,0,0,0,0,0,0,0,0,0,0,0,0,0,0,0,0,0,0,0,0,0,0,0,0,0,0,0,0,0,0,0,0,0,545,545,545,545,545,0,
0,0,0,0,0,0,0,0,0,0,0,0,0,0,0,0,0,0,0,0,0,0,0,0,0,0,0,0,0,0,0,0,0,0,545,545,545,545,545,0,
0,0,0,548,0,0,0,0,0,0,0,0,0,0,0,0,0,0,0,0,0,0,0,0,0,0,0,0,0,0,0,0,0,0,545,545,545,545,545,0,
0,484,547,0,0,0,0,0,0,0,0,0,0,0,0,0,0,0,0,0,0,0,0,0,0,0,0,0,0,0,0,0,0,0,545,545,545,545,545,0,
0,0,0,483,0,0,0,0,0,0,0,0,0,0,0,0,0,0,0,0,0,0,0,0,0,0,0,0,0,0,0,0,0,0,545,545,545,545,545,0,
0,0,0,0,0,0,0,0,0,0,0,0,0,0,0,0,0,0,0,0,0,0,0,0,0,0,0,0,0,0,0,0,0,0,545,545,545,545,545,0,
0,0,0,0,0,0,0,0,0,0,0,0,0,0,0,0,0,0,0,0,0,0,0,0,0,0,0,0,0,0,0,0,0,0,545,545,545,545,545,0,
545,545,545,545,545,545,545,545,545,545,545,545,545,545,545,545,545,545,545,545,545,545,545,545,545,545,545,545,545,545,545,545,545,545,545,545,545,545,545,0,
545,545,545,545,545,545,545,545,545,545,545,545,545,545,545,545,545,545,545,545,545,545,545,545,545,545,545,545,545,545,545,545,545,545,545,545,545,545,545,0,
0,0,0,0,0,0,0,0,0,0,0,0,0,0,0,0,0,0,0,0,0,0,0,0,0,0,0,0,0,0,0,0,0,0,0,0,0,0,0,0
</data>
  </layer>
 </group>
 <group id="29" name="training-room" visible="0">
  <objectgroup id="31" name="obj.txt">
   <object id="23" name="player" type="player" gid="4449" x="24" y="184" width="16" height="16"/>
  </objectgroup>
  <layer id="30" name="map.txt" width="40" height="30">
   <data encoding="csv">
407,408,531,531,531,531,531,531,531,531,531,531,531,531,531,531,531,531,531,531,531,531,531,531,531,531,531,531,531,531,531,531,531,531,531,531,531,531,407,408,
471,472,339,340,341,340,341,340,341,340,341,340,341,340,341,340,341,340,341,340,341,340,341,340,341,340,341,340,341,340,341,340,341,340,341,340,341,342,471,472,
531,475,531,531,531,531,531,531,531,531,531,531,531,531,531,531,531,531,531,531,531,531,531,531,531,531,531,531,531,531,531,531,531,531,531,531,531,531,475,531,
531,347,531,0,0,0,0,0,0,0,0,0,0,0,0,0,0,0,0,0,0,0,0,0,0,0,0,0,0,0,0,0,0,0,0,0,0,531,347,531,
531,411,531,0,0,0,0,0,0,0,0,0,0,0,0,0,0,0,0,0,0,0,0,0,0,0,0,0,0,0,0,0,0,0,0,0,0,531,411,531,
531,347,531,0,0,0,0,0,0,0,0,0,0,0,0,0,0,0,0,0,0,0,0,0,0,0,0,0,0,0,0,0,0,0,0,0,0,531,347,531,
531,411,531,0,0,0,0,0,0,0,0,0,0,0,0,0,0,0,0,0,0,0,0,0,0,0,0,0,0,0,0,0,0,0,0,0,0,531,411,531,
531,347,531,0,0,0,0,0,0,531,531,531,531,0,0,0,0,0,0,0,0,0,0,0,0,0,0,0,0,0,0,0,0,0,0,0,0,531,347,531,
531,411,531,0,0,0,0,0,0,531,531,531,531,0,0,0,0,0,0,0,0,0,0,0,0,0,0,0,0,0,0,0,0,0,0,0,0,531,411,531,
531,347,531,531,531,531,0,0,0,0,0,0,0,0,0,0,0,0,0,0,0,0,0,0,0,0,0,0,0,0,0,0,0,0,0,0,0,531,347,531,
531,411,531,531,531,531,0,0,0,0,0,0,0,0,0,0,0,0,0,0,0,0,0,0,0,0,0,0,0,0,0,0,0,0,0,0,0,531,411,531,
531,347,531,531,531,531,531,531,0,0,0,0,0,0,0,0,0,0,0,0,0,0,0,0,0,0,0,0,0,0,0,0,0,0,0,0,0,531,347,531,
531,411,531,531,531,531,531,531,0,0,0,0,0,0,0,0,0,0,0,0,0,0,0,0,0,0,0,0,0,0,0,0,0,0,0,0,0,531,411,531,
531,347,531,531,531,531,531,531,531,531,0,0,0,0,0,0,0,0,0,0,0,0,0,0,0,0,0,0,0,0,0,0,0,0,0,0,0,531,347,531,
531,411,531,531,531,531,531,531,531,531,0,0,0,0,0,0,0,0,0,0,0,0,0,0,0,0,0,0,0,0,0,0,0,0,0,0,0,531,411,531,
531,347,531,531,531,531,531,531,531,531,531,531,0,0,0,0,0,0,0,0,0,0,0,0,0,0,0,0,0,0,0,0,0,0,0,0,0,531,347,531,
531,411,531,531,531,531,531,531,531,531,531,531,0,0,0,0,0,0,0,0,0,0,0,0,0,0,0,0,0,0,0,0,0,0,0,0,0,531,411,531,
531,347,531,0,0,0,0,0,0,0,0,0,0,0,0,531,531,0,0,0,0,0,0,0,0,0,0,0,0,0,0,0,0,0,0,0,0,531,347,531,
531,411,531,0,0,0,0,0,0,0,0,0,0,0,0,531,531,0,0,0,0,0,0,0,0,0,0,0,0,0,0,0,0,0,0,0,0,531,411,531,
531,347,531,0,0,0,0,0,0,0,0,0,0,531,531,531,531,0,0,0,0,0,0,0,0,0,0,0,0,0,0,0,0,0,0,0,0,531,347,531,
531,411,531,0,0,0,0,0,0,0,0,0,0,531,531,531,531,0,0,0,0,0,0,0,0,0,0,0,0,0,0,0,0,0,0,0,0,531,411,531,
531,347,531,0,0,0,0,0,0,0,0,531,531,531,531,531,531,0,0,0,0,0,0,0,0,0,0,0,0,0,0,0,0,0,0,0,0,531,347,531,
531,411,531,0,0,0,0,0,0,0,0,531,531,531,531,531,531,0,0,0,0,0,0,0,0,0,0,0,0,0,0,0,0,0,0,0,0,531,411,531,
531,347,531,531,531,0,0,0,0,531,531,531,531,531,531,531,531,0,0,0,0,0,0,0,0,0,0,0,0,0,0,0,0,0,0,531,531,531,347,531,
531,411,531,531,531,0,0,0,0,531,531,531,531,531,531,531,531,0,0,0,0,0,0,0,0,0,0,0,0,0,0,0,0,0,0,531,531,531,411,531,
531,347,531,531,531,531,531,0,0,0,0,0,0,0,0,0,0,0,0,0,0,0,0,0,0,0,0,0,0,0,0,0,0,531,531,531,531,531,347,531,
531,411,531,531,531,531,531,0,0,0,0,0,0,0,0,0,0,0,0,0,0,0,0,0,0,0,0,0,0,0,0,0,0,531,531,531,531,531,411,531,
531,347,531,531,531,531,531,531,531,531,531,531,531,531,531,531,531,531,531,531,531,531,531,531,531,531,531,531,531,531,531,531,531,531,531,531,531,531,347,531,
407,408,339,340,341,340,341,340,341,340,341,340,341,340,341,340,341,340,341,340,341,340,341,340,341,340,341,340,341,340,341,340,341,340,341,340,341,342,407,408,
471,472,531,531,531,531,531,531,531,531,531,531,531,531,531,531,531,531,531,531,531,531,531,531,531,531,531,531,531,531,531,531,531,531,531,531,531,531,471,472
</data>
  </layer>
 </group>
</map>
