<?xml version="1.0" encoding="UTF-8"?>
<map version="1.10" tiledversion="1.10.2" orientation="orthogonal" renderorder="right-down" width="40" height="30" tilewidth="8" tileheight="8" infinite="0" nextlayerid="4" nextobjectid="35">
 <tileset firstgid="1" name="8x8" tilewidth="8" tileheight="8" tilecount="4096" columns="64">
  <image source="../atlas.bmp" trans="ff00ff" width="512" height="512"/>
 </tileset>
 <tileset firstgid="4097" name="16x16" tilewidth="16" tileheight="16" tilecount="1024" columns="32">
  <image source="../atlas.bmp" trans="ff00ff" width="512" height="512"/>
 </tileset>
 <tileset firstgid="5121" name="32x32" tilewidth="32" tileheight="32" tilecount="256" columns="16">
  <image source="../atlas.bmp" trans="ff00ff" width="512" height="512"/>
 </tileset>
 <group id="2" name="mainmenu">
  <layer id="1" name="bg.txt" width="40" height="30">
   <data encoding="csv">
3832,3832,3832,3832,3832,3832,3832,3832,3832,3832,3832,3832,3832,3832,3832,3832,3832,3832,3832,3832,3832,3832,3832,3832,3832,3832,3832,3832,3832,3832,3832,3832,3832,3832,3832,3832,3832,3832,3832,3832,
3639,3639,3639,3639,3639,3639,3639,3639,3639,3639,3639,3639,3639,3639,3639,3639,3639,3639,3639,3639,3639,3639,3639,3639,3639,3639,3639,3639,3639,3639,3639,3639,3639,3639,3639,3639,3639,3639,3639,3639,
3703,3703,3703,3703,3703,3703,3703,3703,3703,3703,3703,3703,3703,3703,3703,3703,3703,3703,3703,3703,3703,3703,3703,3703,3703,3703,3703,3703,3703,3703,3703,3703,3703,3703,3703,3703,3703,3703,3703,3703,
3767,3767,3767,3767,3767,3767,3767,3767,3767,3767,3767,3767,3767,3767,3767,3767,3767,3767,3767,3767,3767,3767,3767,3767,3767,3767,3767,3767,3767,3767,3767,3767,3767,3767,3767,3767,3767,3767,3767,3767,
3831,3831,3831,3831,3831,3831,3831,3831,3831,3831,3831,3831,3831,3831,3831,3831,3831,3831,3831,3831,3831,3831,3831,3831,3831,3831,3831,3831,3831,3831,3831,3831,3831,3831,3831,3831,3831,3831,3831,3831,
3831,3831,3831,3831,3831,3831,3831,3831,3831,3831,3831,3831,3831,3831,3831,3831,3831,3831,3831,3831,3831,3831,3831,3831,3831,3831,3831,3831,3831,3831,3831,3831,3831,3831,3831,3831,3831,3831,3831,3831,
3831,3831,3831,3831,3831,3831,3831,3831,3831,3831,3831,3831,3831,3831,3831,3831,3831,3831,3831,3831,3831,3831,3831,3831,3831,3831,3831,3831,3831,3831,3831,3831,3831,3831,3831,3831,3831,3831,3831,3831,
3831,3831,3831,3831,3831,3831,3831,3831,3831,3831,3831,3831,3831,3831,3831,3831,3831,3831,3831,3831,3831,3831,3831,3831,3831,3831,3831,3831,3831,3831,3831,3831,3831,3831,3831,3831,3831,3831,3831,3831,
3831,3831,3831,3831,3831,3831,3831,3831,3831,3831,3831,3831,3831,3831,3831,3831,3831,3831,3831,3831,3831,3831,3831,3831,3831,3831,3831,3831,3831,3831,3831,3831,3831,3831,3831,3831,3831,3831,3831,3831,
3831,3831,3831,3831,3831,3831,3831,3831,3831,3831,3831,3831,3831,3831,3831,3831,3831,3831,3831,3831,3831,3831,3831,3831,3831,3831,3831,3831,3831,3831,3831,3831,3831,3831,3831,3831,3831,3831,3831,3831,
3831,3831,3831,3831,3831,3831,3831,3831,3831,3831,3831,3831,3831,3831,3831,3831,3831,3831,3831,3831,3831,3831,3831,3831,3831,3831,3831,3831,3831,3831,3831,3831,3831,3831,3831,3831,3831,3831,3831,3831,
3831,3831,3831,3831,3831,3831,3831,3831,3831,3831,3831,3831,3831,3831,3831,3831,3831,3831,3831,3831,3831,3831,3831,3831,3831,3831,3831,3831,3831,3831,3831,3831,3831,3831,3831,3831,3831,3831,3831,3831,
3640,3640,3640,3640,3640,3640,3640,3640,3640,3640,3640,3640,3640,3640,3640,3640,3640,3640,3640,3640,3640,3640,3640,3640,3640,3640,3640,3640,3640,3640,3640,3640,3640,3640,3640,3640,3640,3640,3640,3640,
3704,3704,3704,3704,3704,3704,3704,3704,3704,3704,3704,3704,3704,3704,3704,3704,3704,3704,3704,3704,3704,3704,3704,3704,3704,3704,3704,3704,3704,3704,3704,3704,3704,3704,3704,3704,3704,3704,3704,3704,
3768,3768,3768,3768,3768,3768,3768,3768,3768,3768,3768,3768,3768,3768,3768,3768,3768,3768,3768,3768,3768,3768,3768,3768,3768,3768,3768,3768,3768,3768,3768,3768,3768,3768,3768,3768,3768,3768,3768,3768,
3832,3832,3832,3832,3832,3832,3832,3832,3832,3832,3832,3832,3832,3832,3832,3832,3832,3832,3832,3832,3832,3832,3832,3832,3832,3832,3832,3832,3832,3832,3832,3832,3832,3832,3832,3832,3832,3832,3832,3832,
3832,3832,3832,3832,3832,3832,3832,3832,3832,3832,3832,3832,3832,3832,3832,3832,3832,3832,3832,3832,3832,3832,3832,3832,3832,3832,3832,3832,3832,3832,3832,3832,3832,3832,3832,3832,3832,3832,3832,3832,
3832,3832,3832,3832,3832,3832,3832,3832,3832,3832,3832,3832,3832,3832,3832,3832,3832,3832,3832,3832,3832,3832,3832,3832,3832,3832,3832,3832,3832,3832,3832,3832,3832,3832,3832,3832,3832,3832,3832,3832,
3832,3832,3832,3832,3832,3832,3832,3832,3832,3832,3832,3832,3832,3832,3832,3832,3832,3832,3832,3832,3832,3832,3832,3832,3832,3832,3832,3832,3832,3832,3832,3832,3832,3832,3832,3832,3832,3832,3832,3832,
3832,3832,3832,3832,3832,3832,3832,3832,3832,3832,3832,3832,3832,3832,3832,3832,3832,3832,3832,3832,3832,3832,3832,3832,3832,3832,3832,3832,3832,3832,3832,3832,3832,3832,3832,3832,3832,3832,3832,3832,
3641,3641,3641,3641,3641,3641,3641,3641,3641,3641,3641,3641,3641,3641,3641,3641,3641,3641,3641,3641,3641,3641,3641,3641,3641,3641,3641,3641,3641,3641,3641,3641,3641,3641,3641,3641,3641,3641,3641,3641,
3705,3705,3705,3705,3705,3705,3705,3705,3705,3705,3705,3705,3705,3705,3705,3705,3705,3705,3705,3705,3705,3705,3705,3705,3705,3705,3705,3705,3705,3705,3705,3705,3705,3705,3705,3705,3705,3705,3705,3705,
3769,3769,3769,3769,3769,3769,3769,3769,3769,3769,3769,3769,3769,3769,3769,3769,3769,3769,3769,3769,3769,3769,3769,3769,3769,3769,3769,3769,3769,3769,3769,3769,3769,3769,3769,3769,3769,3769,3769,3769,
3645,3646,3647,3648,3644,3645,3646,3647,3648,3833,3833,3833,3833,3833,3833,3833,3644,3645,3646,3647,3648,3833,3833,3644,3645,3646,3647,3648,3833,3833,3833,3833,3833,3833,3833,3644,3645,3646,3647,3648,
3774,3774,3774,3774,3774,3774,3774,3774,3774,3776,3833,3833,3833,3833,3833,3775,3774,3774,3774,3774,3774,3776,3775,3774,3774,3774,3774,3774,3776,3833,3833,3833,3833,3833,3775,3774,3774,3774,3774,3774,
3774,3774,3774,3774,3708,3709,3710,3711,3712,3840,3644,3645,3646,3647,3648,3839,3774,3774,3774,3774,3774,3840,3839,3774,3774,3774,3774,3774,3840,3644,3645,3646,3647,3648,3839,3774,3774,3774,3774,3774,
3774,3774,3774,3772,3838,3838,3838,3838,3838,3773,3774,3774,3774,3774,3774,3774,3774,3774,3774,3774,3774,3774,3774,3774,3774,3774,3774,3774,3774,3774,3774,3774,3774,3774,3774,3774,3774,3774,3774,3774,
3706,3710,3707,3836,3838,3838,3838,3838,3838,3837,3774,3774,3774,3774,3774,3774,3774,3642,3838,3643,3774,3774,3774,3774,3774,3774,3774,3774,3774,3774,3774,3774,3706,3710,3643,3708,3709,3710,3643,3706,
3838,3838,3838,3838,3838,3838,3838,3838,3838,3838,3838,3707,3774,3774,3774,3642,3711,3838,3838,3838,3711,3712,3642,3838,3643,3774,3774,3774,3642,3710,3643,3706,3710,3710,3710,3710,3710,3710,3710,3710,
3838,3838,3838,3838,3838,3838,3838,3838,3838,3838,3838,3838,3774,3774,3770,3838,3838,3838,3838,3838,3838,3838,3838,3838,3838,3643,3774,3770,3710,3710,3710,3710,3710,3710,3710,3710,3710,3710,3710,3710
</data>
  </layer>
  <objectgroup id="3" name="objs.txt">
   <object id="1" type="title" gid="5307" x="68" y="48" width="32" height="32">
    <properties>
     <property name="mm_letter" value="u"/>
    </properties>
   </object>
   <object id="2" type="title" gid="5308" x="100" y="48" width="32" height="32">
    <properties>
     <property name="mm_letter" value="m"/>
    </properties>
   </object>
   <object id="3" type="title" gid="5309" x="132" y="48" width="32" height="32">
    <properties>
     <property name="mm_letter" value="b"/>
    </properties>
   </object>
   <object id="4" type="title" gid="5310" x="164" y="48" width="32" height="32">
    <properties>
     <property name="mm_letter" value="r"/>
    </properties>
   </object>
   <object id="5" type="title" gid="5311" x="196" y="48" width="32" height="32">
    <properties>
     <property name="mm_letter" value="a"/>
    </properties>
   </object>
   <object id="6" type="title" gid="5312" x="228" y="48" width="32" height="32">
    <properties>
     <property name="mm_letter" value="'s"/>
    </properties>
   </object>
   <object id="7" type="title" gid="5324" x="84" y="80" width="32" height="32">
    <properties>
     <property name="mm_rainbow" value="a"/>
    </properties>
   </object>
   <object id="8" type="title" gid="5323" x="52" y="80" width="32" height="32">
    <properties>
     <property name="mm_rainbow" value="r"/>
    </properties>
   </object>
   <object id="9" type="title" gid="5339" x="116" y="80" width="32" height="32">
    <properties>
     <property name="mm_rainbow" value="i"/>
    </properties>
   </object>
   <object id="10" type="title" gid="5340" x="148" y="80" width="32" height="32">
    <properties>
     <property name="mm_rainbow" value="n"/>
    </properties>
   </object>
   <object id="11" type="title" gid="5355" x="180" y="80" width="32" height="32">
    <properties>
     <property name="mm_rainbow" value="b"/>
    </properties>
   </object>
   <object id="12" type="title" gid="5356" x="212" y="80" width="32" height="32">
    <properties>
     <property name="mm_rainbow" value="o"/>
    </properties>
   </object>
   <object id="13" type="title" gid="5357" x="244" y="80" width="32" height="32">
    <properties>
     <property name="mm_rainbow" value="w"/>
    </properties>
   </object>
   <object id="14" type="title" gid="5341" x="84" y="112" width="32" height="32">
    <properties>
     <property name="mm_letter" value="q"/>
    </properties>
   </object>
   <object id="15" type="title" gid="5307" x="116" y="112" width="32" height="32">
    <properties>
     <property name="mm_letter" value="u"/>
    </properties>
   </object>
   <object id="16" type="title" gid="5342" x="148" y="112" width="32" height="32">
    <properties>
     <property name="mm_letter" value="e"/>
    </properties>
   </object>
   <object id="17" type="title" gid="5343" x="180" y="112" width="32" height="32">
    <properties>
     <property name="mm_letter" value="s"/>
    </properties>
   </object>
   <object id="18" type="title" gid="5344" x="212" y="112" width="32" height="32">
    <properties>
     <property name="mm_letter" value="t"/>
    </properties>
   </object>
   <object id="26" name="file 1" type="option" x="0" y="122" width="320" height="8">
    <properties>
     <property name="mm_option" value="file_1"/>
    </properties>
   </object>
   <object id="30" name="file 2" type="option" x="0" y="132" width="320" height="8">
    <properties>
     <property name="mm_option" value="file_2"/>
    </properties>
   </object>
   <object id="31" name="file 3" type="option" x="0" y="142" width="320" height="8">
    <properties>
     <property name="mm_option" value="file_3"/>
    </properties>
   </object>
   <object id="32" name="options" type="option" x="0" y="152" width="320" height="8">
    <properties>
     <property name="mm_option" value="options"/>
    </properties>
   </object>
   <object id="34" name="exit" type="option" x="0" y="162" width="320" height="8">
    <properties>
     <property name="mm_option" value="exit"/>
    </properties>
   </object>
  </objectgroup>
 </group>
</map>
