t180;// [bass]@2 o3 l4 q7 v8[f4. d+2 c+2 d+2^8]4;@2 o3 l4 q7>[a+4. g+2 f+2 g+2^8]4; // [/bass]// [melody]#TABLE 2 { (100, 48)8, (64, 12)8 };#TABLE 3 { 50, 24, 44, 20, 40, 16, 36, 12, 32, 8, 28, 4, 24, 0 };@0 q6o5 l8 na2f g+ a+d+4 f g+c+4 d+ f>a+4< c+ d+ c+f g+ a+d+4 f g+<c4> a+ <c c+2> rf g+ a+d+4 f g+c+4 d+ f>a+4< c+ d+ c+f g+ a+d+4 f g+c4 >a+< c c+2; // [melody]// [percussion]#H=v10 g;#S=v6 b;#K=v8 <g>;#C=v8 na1 q6 g4 v4 na0 q1;#TABLE 0 { 128};#TABLE 1 { 60, 60, 56, 56, 52, 52, 48, 48, 44, 44, 40, 40, 36, 36, 32, 32, 28, 28, 24, 24 };// HiHat + Crash@1 q1 l16 na0[Hr Hr rr Hr rr  Hr rr Hr rr  Hr rr Hr  Hr Hr Hr rr]4;// Snare + Kick@1 q1 l16[rr rr Kr rr rr  rr Kr rr rr  rr Kr rr  rr rr rr Kr]4;// [percussion]